X: 8048
T: Connie The Soldier
R: jig
M: 6/8
K: Dmajor
EAA A2 d|cAG EFD|EFG EFG|EAF GED|
EAA A2 d|cAG E2d|c2c ABG|1 FDD D3:|2 FDD D2e||
fdd ede|fdd d2 e|fed ded|cAA A2e|
fga efg|fed fed|c2c ABG|1 FDD D2e:|2 FDD D3||

